!!!OTL: Hongjun laidao zunyicheng
!!!ARE: Asia, China,ÿGuizhou Zunyi
!! II, 149
!!!SCT: C1871
!!!YEM: Copyright 1995, estate of Helmut Schaffrath.
**kern
*ICvox
*Ivox
!! Mixed meters:  2/4; 3/4
*M3/4
*k[]
*C:
{8dd
8cc
4ee
=1
8dd
8cc
4ee
=2
8dd
8ee
8dd
8cc
=3
2ee}
=4
{4cc
4ee
=5
8dd
8cc
4ee
=6
8ee
8cc
8dd
8cc
=7
2a}
=8
{8cc
8dd
4dd
=9
8dd
8cc
4a
=10
8dd
8cc
4a}
=11
{8a
16a
16cc
4dd
=12
8ee
8dd
8cc
8a
=13
8dd
8cc
4ee}
=14
{8ee
8cc
8dd
8dd
=15
8cc
4ee
8ee
=16
4ee
4dd
=17
8cc
8dd
4cc
4a}
=18
*M2/4
{16cc
16dd
4ee
8ee
=19
4ee
4dd
=20
8cc
8dd
4cc
=21
2a}
==
!!!AGN: Xiaodiao, Huadeng diao
!!!AMT: irregular
!!!AIN: vox
!!!EED: Helmut Schaffrath
!!!EEV: 1.0
*-
